X: 4139
T: Mrs GRANT OF LAGGAN
R: Strathspey.
%R: strathspey
B: James Kerr "Merry Melodies" v.4 p.17 #139
Z: 2016 John Chambers <jc:trillian.mit.edu>
M: C
L: 1/8
K: Am
ue |\
d/c/B/A/ ^GB A<A, A,>B, | C>DE>^F G2(G<B) |\
(A/B/c) (B/c/d) A<A, A,>B, | C>DE>^G A3B |\
d/c/B/A/ B>^G A>E=G>E |
E<G B,>A, G,2 (G,A,/B,/) |\
(3CB,A, (3DCB, (3EDC (3B,CD | (3Edc (3BA^G A2-A |]\
(c/B/) |\
A<e c>B A/B/c/B/ A>E | G<B F>D (B,2 G,)(c/B/) |
A<e c>B A/B/c/d/ e<a | c>AB>^G A2- A(c/B/) |\
A<e d/c/B/A/ B^GAE | G<B G>D (B,2 G,)(A,/B,/) |\
(3CB,A, (3DCB, (3EDC (3B,CD | (3Edc (3BA^G A2-A |]

%%sep 1 1 500
%%sep 1 1 500

